X: 082121
T: High Rock (The)
C: Joe Liddy
Z: BB
S: "The Leitrim Fiddler" (Dublin 1981)
L: 1/8
M: 4/4
R: reel
Q: 1/4 = 180
K: F
FG | AddA cAGA | F2 cF dFcF | AddA cAGA | cdfa gfdc |
AddA cAGA | F2 cF DFAc | fgfd fdcA | GFDE F2 FG ||
AddA cAGA | F2 cF dFcF | AddA cAGA | cdfa gfdc |
AddA cAGA | F2 FD CDFG | Acfg fdcA | GFDE F2 |: AB |
cffe f2 af | ceag fdcA | dgg^f g2 bg | dgag (3agf dc |
dffe fgag | fgaf gf d2 | c2 Ac fdcA | GFDE F2 :|
